svgs/thin/hand-fist.svg

<svg xmlns="http://www.w3.org/2000/svg" viewBox="0 0 448 512"><!-- Font Awesome Pro 6.0.0-alpha2 by @fontawesome - https://fontawesome.com License - https://fontawesome.com/license (Commercial License) --><path d="M368 64.156C355.516 64.156 344.232 69.062 335.688 76.9C334.057 51.9 313.406 32 288 32C275.51 32 264.219 36.91 255.672 44.756C253.967 19.822 233.357 0 208 0C182.789 0 162.283 19.6 160.371 44.328C151.818 36.744 140.51 32 128 32C101.531 32 80 52.75 80 78.266V169.547C80 174.74 80.977 179.762 82.682 184.539C54.33 187.266 32 210.947 32 240V318.922C32 338.828 42.844 357.156 60.25 366.766L123.875 401.859C125.25 402.609 126.625 403.328 128 404.031V504C128 508.422 131.594 512 136 512S144 508.422 144 504V398.953C144 392.457 138.728 391.771 131.625 387.859L68 352.766C55.656 345.969 48 333 48 318.922V240C48 217.938 65.938 200 88 200H176C193.656 200 208 214.359 208 232S193.656 264 176 264H128C123.594 264 120 267.578 120 272S123.594 280 128 280H176C202.469 280 224 258.469 224 232C224 219.43 219.037 208.064 211.102 199.498C222.764 198.738 233.312 193.947 241.236 186.309C246.047 207.73 265.146 223.812 288 223.812C301.881 223.812 314.301 217.799 323.072 208.35C329.807 226.73 347.314 239.953 368 239.953C394.469 239.953 416 218.422 416 191.953V112.156C416 85.688 394.469 64.156 368 64.156ZM160 169.547C160 174.732 158.311 179.568 155.711 184H100.289C97.689 179.568 96 174.732 96 169.547V78.266C96 61.578 110.344 48 128 48S160 61.578 160 78.266V169.547ZM240 151.812C240 169.453 225.656 183.812 208 183.812S176 169.453 176 151.812V48C176 30.359 190.344 16 208 16S240 30.359 240 48V151.812ZM320 175.812C320 193.453 305.656 207.812 288 207.812S256 193.453 256 175.812V80C256 62.359 270.344 48 288 48S320 62.359 320 80V175.812ZM400 191.953C400 209.594 385.656 223.953 368 223.953S336 209.594 336 191.953V112.156C336 94.516 350.344 80.156 368 80.156S400 94.516 400 112.156V191.953ZM408 256C403.594 256 400 259.578 400 264V307.156C399.812 343.531 376.062 377.906 340.906 392.719C337.938 393.969 336 396.875 336 400.094V504C336 508.422 339.594 512 344 512S352 508.422 352 504V405.266C390.281 386.953 415.781 348.203 416 307.203V264C416 259.578 412.406 256 408 256Z"/></svg>

<svg xmlns="http://www.w3.org/2000/svg" viewBox="0 0 448 512"><!--! Font Awesome Pro 6.0.0-alpha3 by @fontawesome - https://fontawesome.com License - https://fontawesome.com/license (Commercial License) --><path d="M368 64.16c-12.48 0-23.77 4.906-32.31 12.74C334.1 51.9 313.4 32 288 32c-12.49 0-23.78 4.91-32.33 12.76C253.1 19.82 233.4 0 208 0C182.8 0 162.3 19.6 160.4 44.33C151.8 36.74 140.5 32 128 32C101.5 32 80 52.75 80 78.27v91.28c0 5.193 .9766 10.21 2.682 14.99C54.33 187.3 32 210.9 32 240v78.92c0 19.91 10.84 38.23 28.25 47.84c0 0 66.38 36.56 67.75 37.27V504C128 508.4 131.6 512 136 512s8-3.578 8-8v-105c0-6.496-5.272-7.183-12.38-11.09L68 352.8C55.66 345.1 48 333 48 318.9V240c0-22.06 17.94-40 40-40H176c17.66 0 32 14.36 32 32s-14.34 32-32 32H128c-4.406 0-8 3.578-8 8S123.6 280 128 280h48c26.47 0 48-21.53 48-48c0-12.57-4.963-23.94-12.9-32.5c11.66-.7598 22.21-5.551 30.13-13.19C246 207.7 265.1 223.9 288 223.9c13.88 0 26.3-6.139 35.07-15.59C329.8 226.7 347.3 239.1 368 239.1c26.47 0 48-21.5 48-47.97V112.2C416 85.69 394.5 64.16 368 64.16zM160 169.5C160 174.7 158.3 179.6 155.7 184H100.3C97.69 179.6 96 174.7 96 169.5V78.27C96 61.58 110.3 48 128 48s32 13.58 32 30.27V169.5zM240 151.8c0 17.64-14.34 32-32 32s-32-14.36-32-32V48c0-17.64 14.34-32 32-32s32 14.36 32 32V151.8zM320 175.8c0 17.64-14.34 32-32 32s-32-14.36-32-32V80c0-17.64 14.34-32 32-32s32 14.36 32 32V175.8zM400 191.1c0 17.64-14.34 32-32 32s-32-14.36-32-32V112.2c0-17.64 14.34-32 32-32s32 14.36 32 32V191.1zM408 256c-4.406 0-8 3.578-8 8v43.16c-.1875 36.38-23.94 70.75-59.09 85.56C337.9 393.1 336 396.9 336 400.1V504c0 4.422 3.594 8 8 8S352 508.4 352 504v-98.73c38.28-18.31 63.78-57.06 64-98.06V264C416 259.6 412.4 256 408 256z"/></svg>
